source/img/icon-fb.svg

<svg  viewBox="0 0 15 28" xmlns="http://www.w3.org/2000/svg">
<path d="M11.7171 4.91672H14.2V0.591924C13.7716 0.532991 12.2984 0.400391 10.5827 0.400391C7.00278 0.400391 4.55045 2.65232 4.55045 6.79126V10.6004H0.599976V15.4352H4.55045V27.6004H9.39391V15.4363H13.1846L13.7863 10.6015H9.39278V7.27066C9.39391 5.87326 9.77015 4.91672 11.7171 4.91672Z" />
</svg>

<svg viewBox="0 0 15 28" xmlns="http://www.w3.org/2000/svg"><path d="M11.717 4.917H14.2V.592C13.772.533 12.298.4 10.583.4 7.003.4 4.55 2.652 4.55 6.791v3.81H.6v4.834h3.95V27.6h4.844V15.436h3.79l.602-4.835H9.393v-3.33c0-1.398.377-2.354 2.324-2.354z"/></svg>
